!!!OTL: Sheyuan gege jifei mang
!!!ARE: Asia, China,ÿHunan Jiahe
!! I, 505, 2)
!!!SCT: C1962
!!!YEM: Copyright 1995, estate of Helmut Schaffrath.
**kern
*ICvox
*Ivox
*M2/4
*k[]
*C:
{8g
16e
16g
4g
=1
8cc
16a
16cc
4cc
=2
16dd
16ee
16dd
16cc
16a
16cc
16a
16e
=3
8.g
16e
4g}
=4
{8e
8cc
16a
16cc
16a
16g
=5
16e
16g
16a
16cc
8g
8g
=6
8.d
16e
16d
16c
8A
=7
8c
16G
16A
4c}
==
!!!AGN: Xiaodiao, Banjiage
!!!ONB: ESAC (Essen Associative Code) Database: SENGANSU
!!!AMT: simple duple
!!!AIN: vox
!!!EED: Helmut Schaffrath
!!!EEV: 1.0
*-
